raw/symbols/atom.svg

<svg width="42" height="42" viewBox="0 0 42 42" fill="none" xmlns="http://www.w3.org/2000/svg">
<path d="M42 21C42 32.598 32.598 42 21 42C9.40202 42 0 32.598 0 21C0 9.40202 9.40202 0 21 0C32.598 0 42 9.40202 42 21Z" fill="#5064FB"/>
<g clip-path="url(#clip0_1915_201433)">
<path fill-rule="evenodd" clip-rule="evenodd" d="M22.551 31.5506C23.0625 29.3185 23.4183 26.1936 23.5042 22.6604L24.2878 22.6793C24.2013 26.2465 23.8419 29.4273 23.315 31.7257C23.0524 32.8717 22.7434 33.8197 22.3942 34.49C22.2197 34.8248 22.0257 35.1097 21.8065 35.3158C21.5857 35.5232 21.3142 35.6728 20.9996 35.6728C20.6383 35.6728 20.3358 35.4772 20.097 35.2194C19.8576 34.9607 19.6446 34.6017 19.4532 34.1761C19.0693 33.3221 18.7352 32.1145 18.4634 30.6601L19.234 30.5161C19.5005 31.9443 19.8213 33.0827 20.1683 33.8546C20.3424 34.2417 20.5135 34.5155 20.672 34.6863C20.8311 34.8581 20.9405 34.8885 20.9993 34.8885C21.0512 34.8885 21.1401 34.8656 21.2694 34.7441C21.4004 34.621 21.5461 34.4201 21.6987 34.1274C22.0031 33.5426 22.2942 32.6691 22.5506 31.55L22.551 31.5506Z" fill="url(#paint0_linear_1915_201433)"/>
<path fill-rule="evenodd" clip-rule="evenodd" d="M19.6944 9.48651C19.2253 11.1274 18.8526 13.4637 18.6484 16.207L17.8667 16.1489C18.0732 13.3765 18.4514 10.9823 18.9408 9.27124C19.1845 8.41864 19.4621 7.71337 19.7731 7.21259C20.0688 6.73631 20.4715 6.32471 21.0004 6.32471C21.3153 6.32471 21.5865 6.47432 21.8073 6.68175C22.0265 6.88788 22.2208 7.17306 22.395 7.50757C22.7442 8.17821 23.0532 9.12587 23.3158 10.2721C23.8427 12.5706 24.2017 15.7513 24.2886 19.3185L23.505 19.3375C23.4191 15.8042 23.0633 12.679 22.5518 10.4472C22.2953 9.32808 22.0043 8.45425 21.6998 7.86984C21.5473 7.57682 21.4012 7.37592 21.2706 7.25309C21.1412 7.13157 21.0524 7.10871 21.0007 7.10871C20.9093 7.10871 20.71 7.19037 20.4395 7.62615C20.1841 8.03775 19.9306 8.66364 19.6951 9.48684L19.6944 9.48651Z" fill="url(#paint1_linear_1915_201433)"/>
<path fill-rule="evenodd" clip-rule="evenodd" d="M18.6479 16.2061C18.5365 17.7019 18.4754 19.315 18.4754 20.9973C18.4754 24.67 18.7668 28.0089 19.2346 30.5144L18.464 30.6585C17.9854 28.0948 17.6914 24.7063 17.6914 20.9973C17.6914 19.2964 17.7531 17.6637 17.8662 16.1479L18.6479 16.2061Z" fill="url(#paint2_linear_1915_201433)"/>
<path fill-rule="evenodd" clip-rule="evenodd" d="M18.2823 22.3297C15.7392 20.777 13.542 19.2028 11.91 17.8115L11.4014 18.408C13.0713 19.832 15.3037 21.4297 17.8736 22.9987L18.2823 22.3297Z" fill="url(#paint3_linear_1915_201433)"/>
<path fill-rule="evenodd" clip-rule="evenodd" d="M29.3459 27.6171C27.1572 26.9442 24.2734 25.6898 21.1707 23.998L20.7954 24.6863C23.9278 26.3948 26.8616 27.6737 29.1156 28.3665C30.2393 28.7121 31.2148 28.9183 31.97 28.9513C32.347 28.9676 32.691 28.9421 32.9791 28.8552C33.2692 28.7677 33.5344 28.6076 33.6919 28.3348C33.9575 27.8749 33.8 27.3179 33.5331 26.8214C33.2522 26.299 32.7759 25.7029 32.1543 25.0616C30.9064 23.7749 29.0072 22.2415 26.6924 20.6689L26.2517 21.3174C28.5423 22.8736 30.3945 24.373 31.5914 25.6072C32.1922 26.2265 32.6113 26.7626 32.8426 27.1925C33.0876 27.6482 33.0588 27.8628 33.0131 27.9425C32.9873 27.9876 32.9229 28.0529 32.753 28.1042C32.5812 28.1561 32.3343 28.182 32.0043 28.1676C31.3458 28.1388 30.4438 27.9543 29.3466 27.6168L29.3459 27.6171Z" fill="url(#paint4_linear_1915_201433)"/>
<path fill-rule="evenodd" clip-rule="evenodd" d="M22.2458 18.8093C23.6802 19.6374 25.0271 20.4835 26.2514 21.3152L26.6921 20.6667C25.4514 19.8239 24.0882 18.9678 22.6378 18.1302C19.2062 16.1489 15.9222 14.6404 13.3866 13.7983C12.1218 13.3782 11.0239 13.1172 10.1778 13.0531C9.75573 13.0211 9.37386 13.0365 9.05699 13.1191C8.73947 13.2021 8.44547 13.3648 8.27561 13.6588C8.09365 13.974 8.11358 14.3369 8.21942 14.675C8.32591 15.0144 8.534 15.3816 8.81134 15.7638C9.36798 16.5308 10.2608 17.4337 11.4008 18.4059L11.9094 17.8094C10.7893 16.8542 9.94977 15.9977 9.44573 15.3032C9.19289 14.955 9.03805 14.6659 8.96749 14.4405C8.89627 14.2134 8.92469 14.1024 8.95442 14.0508C8.98219 14.0027 9.05503 13.9299 9.25463 13.878C9.45487 13.8257 9.74071 13.8067 10.1183 13.8352C10.8716 13.892 11.9 14.1308 13.1393 14.5424C15.6119 15.3636 18.8465 16.8467 22.2458 18.8093Z" fill="url(#paint5_linear_1915_201433)"/>
<path fill-rule="evenodd" clip-rule="evenodd" d="M21.2765 17.9582C23.9101 16.5264 26.3843 15.4105 28.4064 14.7L28.1463 13.9604C26.0763 14.6879 23.5632 15.8228 20.9019 17.2696L21.2762 17.9582H21.2765Z" fill="url(#paint6_linear_1915_201433)"/>
<path fill-rule="evenodd" clip-rule="evenodd" d="M11.0845 24.949C12.7496 23.398 15.261 21.5363 18.2601 19.7014L17.8511 19.0327C14.8229 20.8852 12.2651 22.7779 10.5501 24.3753C9.6949 25.1721 9.03373 25.91 8.63062 26.5447C8.4294 26.8616 8.28109 27.171 8.21282 27.463C8.14422 27.757 8.15108 28.0657 8.30788 28.3372C8.57313 28.7965 9.13304 28.9389 9.69523 28.9562C10.2868 28.9745 11.0395 28.8608 11.9035 28.6439C13.6374 28.2085 15.9097 27.3336 18.4234 26.1194L18.0824 25.4135C15.5948 26.615 13.3755 27.4663 11.7127 27.8837C10.8784 28.0931 10.2061 28.1879 9.71973 28.1728C9.20425 28.1568 9.03308 28.0249 8.98702 27.9455C8.96121 27.9007 8.93671 27.8129 8.97656 27.6414C9.01707 27.4676 9.11703 27.2422 9.29278 26.9652C9.64362 26.4124 10.2499 25.7271 11.0845 24.9493V24.949Z" fill="url(#paint7_linear_1915_201433)"/>
<path fill-rule="evenodd" clip-rule="evenodd" d="M22.2782 23.182C20.8357 24.015 19.4219 24.7621 18.0825 25.4089L18.4236 26.1148C19.7809 25.4592 21.2117 24.703 22.6702 23.8608C26.1019 21.8796 29.05 19.7899 31.0476 18.0151C32.0439 17.1298 32.8191 16.3093 33.2973 15.6086C33.5358 15.259 33.7138 14.9209 33.8007 14.605C33.8876 14.2885 33.8938 13.9527 33.724 13.6587C33.544 13.347 33.2248 13.1831 32.8841 13.1047C32.5421 13.0263 32.1269 13.0207 31.6653 13.0668C30.7395 13.1595 29.5335 13.4702 28.1468 13.9576L28.4068 14.6972C29.7687 14.2186 30.9075 13.9305 31.7437 13.8468C32.1632 13.805 32.4836 13.8168 32.709 13.8687C32.9357 13.9207 33.0161 13.9997 33.0455 14.0507C33.0733 14.0987 33.1 14.198 33.0452 14.3973C32.9903 14.5969 32.8639 14.854 32.6502 15.1669C32.2242 15.7908 31.5033 16.5618 30.5272 17.4294C28.5796 19.1601 25.6778 21.2197 22.2786 23.1823L22.2782 23.182Z" fill="url(#paint8_linear_1915_201433)"/>
<path d="M18.9738 31.5765C19.5394 31.5765 19.9979 31.118 19.9979 30.5524C19.9979 29.9868 19.5394 29.5283 18.9738 29.5283C18.4082 29.5283 17.9497 29.9868 17.9497 30.5524C17.9497 31.118 18.4082 31.5765 18.9738 31.5765Z" fill="white"/>
<path d="M11.696 19.0006C12.2616 19.0006 12.7201 18.5421 12.7201 17.9765C12.7201 17.4109 12.2616 16.9524 11.696 16.9524C11.1304 16.9524 10.6719 17.4109 10.6719 17.9765C10.6719 18.5421 11.1304 19.0006 11.696 19.0006Z" fill="white"/>
<path d="M28.2775 15.4916C28.8431 15.4916 29.3016 15.0331 29.3016 14.4675C29.3016 13.9019 28.8431 13.4434 28.2775 13.4434C27.7119 13.4434 27.2534 13.9019 27.2534 14.4675C27.2534 15.0331 27.7119 15.4916 28.2775 15.4916Z" fill="white"/>
<path fill-rule="evenodd" clip-rule="evenodd" d="M21.0007 19.2151C21.9853 19.2151 22.7837 20.0135 22.7837 20.998C22.7837 21.9826 21.9853 22.781 21.0007 22.781C20.0161 22.781 19.2178 21.9826 19.2178 20.998C19.2178 20.0135 20.0161 19.2151 21.0007 19.2151Z" fill="white"/>
</g>
<defs>
<linearGradient id="paint0_linear_1915_201433" x1="19.7256" y1="35.1832" x2="23.5133" y2="22.4301" gradientUnits="userSpaceOnUse">
<stop offset="0.38" stop-color="white" stop-opacity="0.6"/>
<stop offset="0.99" stop-color="white" stop-opacity="0"/>
</linearGradient>
<linearGradient id="paint1_linear_1915_201433" x1="18.392" y1="7.38637" x2="23.2779" y2="19.7409" gradientUnits="userSpaceOnUse">
<stop offset="0.63" stop-color="white" stop-opacity="0.81"/>
<stop offset="1" stop-color="white" stop-opacity="0"/>
</linearGradient>
<linearGradient id="paint2_linear_1915_201433" x1="18.463" y1="16.1479" x2="18.463" y2="30.6751" gradientUnits="userSpaceOnUse">
<stop stop-color="white" stop-opacity="0.81"/>
<stop offset="0.65" stop-color="white"/>
</linearGradient>
<linearGradient id="paint3_linear_1915_201433" x1="11.6049" y1="18.1725" x2="18.0115" y2="22.6916" gradientUnits="userSpaceOnUse">
<stop stop-color="white" stop-opacity="0.6"/>
<stop offset="1" stop-color="white" stop-opacity="0"/>
</linearGradient>
<linearGradient id="paint4_linear_1915_201433" x1="34.8594" y1="25.7542" x2="20.6543" y2="23.3904" gradientUnits="userSpaceOnUse">
<stop offset="0.61" stop-color="white" stop-opacity="0.81"/>
<stop offset="1" stop-color="white" stop-opacity="0"/>
</linearGradient>
<linearGradient id="paint5_linear_1915_201433" x1="26.0767" y1="21.1665" x2="7.63665" y2="14.3291" gradientUnits="userSpaceOnUse">
<stop stop-color="white" stop-opacity="0.81"/>
<stop offset="0.48" stop-color="white"/>
</linearGradient>
<linearGradient id="paint6_linear_1915_201433" x1="28.3041" y1="14.2188" x2="20.6216" y2="17.7887" gradientUnits="userSpaceOnUse">
<stop stop-color="white" stop-opacity="0.6"/>
<stop offset="1" stop-color="white" stop-opacity="0"/>
</linearGradient>
<linearGradient id="paint7_linear_1915_201433" x1="9.74162" y1="30.1724" x2="19.3584" y2="20.1434" gradientUnits="userSpaceOnUse">
<stop offset="0.55" stop-color="white" stop-opacity="0.81"/>
<stop offset="1" stop-color="white" stop-opacity="0"/>
</linearGradient>
<linearGradient id="paint8_linear_1915_201433" x1="33.5979" y1="12.6689" x2="18.0701" y2="25.5843" gradientUnits="userSpaceOnUse">
<stop offset="0.52" stop-color="white"/>
<stop offset="1" stop-color="white" stop-opacity="0.81"/>
</linearGradient>
<clipPath id="clip0_1915_201433">
<rect width="25.7214" height="29.3477" fill="white" transform="translate(8.13916 6.32544)"/>
</clipPath>
</defs>
</svg>

<svg xmlns="http://www.w3.org/2000/svg" width="42" height="42" fill="none"><path fill="#5064FB" d="M42 21c0 11.598-9.402 21-21 21S0 32.598 0 21 9.402 0 21 0s21 9.402 21 21Z"/><g clip-path="url(#a)"><path fill="url(#b)" fill-rule="evenodd" d="M22.551 31.55c.512-2.232.867-5.356.953-8.89l.784.02c-.087 3.567-.446 6.747-.973 9.046-.263 1.146-.572 2.094-.92 2.764-.175.335-.37.62-.588.826-.221.207-.493.357-.807.357-.362 0-.664-.196-.903-.454-.24-.258-.452-.617-.644-1.043-.384-.854-.718-2.062-.99-3.516l.771-.144c.266 1.428.587 2.567.934 3.339.174.387.346.66.504.831.16.172.268.203.327.203.052 0 .141-.023.27-.145.131-.123.277-.324.43-.617.304-.584.595-1.458.852-2.577Z" clip-rule="evenodd"/><path fill="url(#c)" fill-rule="evenodd" d="M19.694 9.487c-.469 1.64-.841 3.977-1.046 6.72l-.781-.058c.206-2.773.584-5.167 1.074-6.878.244-.852.521-1.558.832-2.058.296-.477.698-.888 1.227-.888.315 0 .587.15.807.357.22.206.414.491.588.826.35.67.658 1.618.92 2.764.528 2.299.887 5.48.974 9.046l-.784.02c-.086-3.534-.442-6.659-.953-8.89-.257-1.12-.548-1.994-.852-2.578-.153-.293-.299-.494-.43-.617-.129-.121-.218-.144-.27-.144-.09 0-.29.081-.56.517-.256.412-.51 1.038-.745 1.86Z" clip-rule="evenodd"/><path fill="url(#d)" fill-rule="evenodd" d="M18.648 16.206a64.879 64.879 0 0 0-.173 4.791c0 3.673.292 7.012.76 9.517l-.771.145c-.479-2.564-.773-5.953-.773-9.662 0-1.7.062-3.333.175-4.85l.782.06Z" clip-rule="evenodd"/><path fill="url(#e)" fill-rule="evenodd" d="M18.282 22.33c-2.543-1.553-4.74-3.127-6.372-4.518l-.509.596c1.67 1.424 3.903 3.022 6.473 4.59l.408-.668Z" clip-rule="evenodd"/><path fill="url(#f)" fill-rule="evenodd" d="M29.346 27.617c-2.189-.673-5.073-1.927-8.175-3.619l-.376.688c3.133 1.709 6.067 2.988 8.32 3.68 1.124.346 2.1.552 2.855.585.377.017.721-.009 1.01-.096.29-.087.554-.247.712-.52.266-.46.108-1.017-.159-1.514-.28-.522-.757-1.118-1.379-1.76-1.248-1.286-3.147-2.82-5.462-4.392l-.44.648c2.29 1.557 4.143 3.056 5.34 4.29.6.62 1.02 1.156 1.25 1.585.246.456.217.67.171.75-.026.046-.09.11-.26.162-.172.052-.419.078-.749.064-.658-.03-1.56-.214-2.657-.551h-.001Z" clip-rule="evenodd"/><path fill="url(#g)" fill-rule="evenodd" d="M22.246 18.81a64.972 64.972 0 0 1 4.005 2.505l.441-.648a65.904 65.904 0 0 0-4.054-2.537c-3.432-1.981-6.716-3.49-9.251-4.332-1.265-.42-2.363-.68-3.21-.745-.421-.032-.803-.017-1.12.066-.318.083-.612.246-.781.54-.182.315-.162.678-.057 1.016.107.34.315.707.592 1.089.557.767 1.45 1.67 2.59 2.642l.508-.597c-1.12-.955-1.96-1.811-2.463-2.506-.253-.348-.408-.637-.479-.863-.07-.227-.042-.338-.013-.39.028-.047.101-.12.3-.172.2-.052.487-.071.864-.043.754.057 1.782.296 3.021.707 2.473.822 5.707 2.305 9.107 4.267Z" clip-rule="evenodd"/><path fill="url(#h)" fill-rule="evenodd" d="M21.276 17.958c2.634-1.432 5.108-2.547 7.13-3.258l-.26-.74c-2.07.728-4.583 1.863-7.244 3.31l.374.688Z" clip-rule="evenodd"/><path fill="url(#i)" fill-rule="evenodd" d="M11.085 24.949c1.665-1.551 4.176-3.413 7.175-5.248l-.409-.668c-3.028 1.852-5.586 3.745-7.3 5.342-.856.797-1.517 1.535-1.92 2.17-.202.317-.35.626-.418.918-.069.294-.062.603.095.874.265.46.825.602 1.387.62.592.017 1.345-.096 2.208-.313 1.734-.435 4.007-1.31 6.52-2.525l-.34-.706c-2.488 1.202-4.707 2.053-6.37 2.47-.835.21-1.507.305-1.993.29-.516-.016-.687-.148-.733-.227-.026-.045-.05-.133-.01-.305.04-.173.14-.399.316-.676.35-.553.957-1.238 1.792-2.016Z" clip-rule="evenodd"/><path fill="url(#j)" fill-rule="evenodd" d="M22.278 23.182a64.731 64.731 0 0 1-4.195 2.227l.34.706a65.613 65.613 0 0 0 4.247-2.254c3.432-1.981 6.38-4.071 8.378-5.846.996-.885 1.771-1.706 2.25-2.406.238-.35.416-.688.503-1.004.087-.316.093-.652-.077-.946-.18-.312-.5-.476-.84-.554-.342-.079-.757-.084-1.219-.038-.925.092-2.131.403-3.518.89l.26.74c1.362-.478 2.5-.766 3.337-.85.42-.042.74-.03.965.022.227.052.307.13.336.182.028.048.055.147 0 .346-.055.2-.181.457-.395.77-.426.624-1.147 1.395-2.123 2.262-1.947 1.731-4.85 3.79-8.248 5.753Z" clip-rule="evenodd"/><path fill="#fff" d="M18.974 31.576a1.024 1.024 0 1 0 0-2.048 1.024 1.024 0 0 0 0 2.049ZM11.696 19a1.024 1.024 0 1 0 0-2.048 1.024 1.024 0 0 0 0 2.049ZM28.277 15.492a1.024 1.024 0 1 0 0-2.049 1.024 1.024 0 0 0 0 2.049Z"/><path fill="#fff" fill-rule="evenodd" d="M21 19.215a1.783 1.783 0 1 1 0 3.566 1.783 1.783 0 0 1 0-3.566Z" clip-rule="evenodd"/></g><defs><linearGradient id="b" x1="19.726" x2="23.513" y1="35.183" y2="22.43" gradientUnits="userSpaceOnUse"><stop offset=".38" stop-color="#fff" stop-opacity=".6"/><stop offset=".99" stop-color="#fff" stop-opacity="0"/></linearGradient><linearGradient id="c" x1="18.392" x2="23.278" y1="7.386" y2="19.741" gradientUnits="userSpaceOnUse"><stop offset=".63" stop-color="#fff" stop-opacity=".81"/><stop offset="1" stop-color="#fff" stop-opacity="0"/></linearGradient><linearGradient id="d" x1="18.463" x2="18.463" y1="16.148" y2="30.675" gradientUnits="userSpaceOnUse"><stop stop-color="#fff" stop-opacity=".81"/><stop offset=".65" stop-color="#fff"/></linearGradient><linearGradient id="e" x1="11.605" x2="18.012" y1="18.172" y2="22.692" gradientUnits="userSpaceOnUse"><stop stop-color="#fff" stop-opacity=".6"/><stop offset="1" stop-color="#fff" stop-opacity="0"/></linearGradient><linearGradient id="f" x1="34.859" x2="20.654" y1="25.754" y2="23.39" gradientUnits="userSpaceOnUse"><stop offset=".61" stop-color="#fff" stop-opacity=".81"/><stop offset="1" stop-color="#fff" stop-opacity="0"/></linearGradient><linearGradient id="g" x1="26.077" x2="7.637" y1="21.166" y2="14.329" gradientUnits="userSpaceOnUse"><stop stop-color="#fff" stop-opacity=".81"/><stop offset=".48" stop-color="#fff"/></linearGradient><linearGradient id="h" x1="28.304" x2="20.622" y1="14.219" y2="17.789" gradientUnits="userSpaceOnUse"><stop stop-color="#fff" stop-opacity=".6"/><stop offset="1" stop-color="#fff" stop-opacity="0"/></linearGradient><linearGradient id="i" x1="9.742" x2="19.358" y1="30.172" y2="20.143" gradientUnits="userSpaceOnUse"><stop offset=".55" stop-color="#fff" stop-opacity=".81"/><stop offset="1" stop-color="#fff" stop-opacity="0"/></linearGradient><linearGradient id="j" x1="33.598" x2="18.07" y1="12.669" y2="25.584" gradientUnits="userSpaceOnUse"><stop offset=".52" stop-color="#fff"/><stop offset="1" stop-color="#fff" stop-opacity=".81"/></linearGradient><clipPath id="a"><path fill="#fff" d="M8.14 6.325h25.72v29.348H8.14z"/></clipPath></defs></svg>
